icons/svg/format-paint.svg

﻿<?xml version="1.0" encoding="utf-8"?>
<!DOCTYPE svg PUBLIC "-//W3C//DTD SVG 1.1//EN" "http://www.w3.org/Graphics/SVG/1.1/DTD/svg11.dtd">
<svg xmlns="http://www.w3.org/2000/svg" xmlns:xlink="http://www.w3.org/1999/xlink" version="1.1" baseProfile="full" width="24" height="24" viewBox="0 0 24.00 24.00" enable-background="new 0 0 24.00 24.00" xml:space="preserve">
	<path fill="#000000" fill-opacity="1" stroke-width="0.2" stroke-linejoin="round" d="M 17.9994,3.99805L 17.9994,2.99805C 17.9994,2.44604 17.5514,1.99805 16.9994,1.99805L 4.9994,1.99805C 4.4474,1.99805 3.9994,2.44604 3.9994,2.99805L 3.9994,6.99805C 3.9994,7.55005 4.4474,7.99805 4.9994,7.99805L 16.9994,7.99805C 17.5514,7.99805 17.9994,7.55005 17.9994,6.99805L 17.9994,5.99805L 18.9994,5.99805L 18.9994,9.99805L 8.9994,9.99805L 8.9994,20.998C 8.9994,21.55 9.4474,21.998 9.9994,21.998L 11.9994,21.998C 12.5514,21.998 12.9994,21.55 12.9994,20.998L 12.9994,11.998L 20.9994,11.998L 20.9994,3.99805L 17.9994,3.99805 Z "/>
</svg>

<svg xmlns="http://www.w3.org/2000/svg" version="1.1" baseProfile="full" width="24" height="24" viewBox="0 0 24.00 24.00" xml:space="preserve"><path fill="#000" fill-opacity="1" stroke-width=".2" stroke-linejoin="round" d="M18 3.998v-1c0-.552-.45-1-1-1H5c-.553 0-1 .448-1 1v4c0 .552.447 1 1 1h12c.55 0 1-.448 1-1v-1h1v4H9v11c0 .552.447 1 1 1h2c.55 0 1-.448 1-1v-9h8v-8h-3z"/></svg>
